!!!COM: Corelli, Arcangelo
!!!OTL: 
!!!ONM: Opus 6, No. 6
!!!OMV: 3
!!!CDT: 1653/2/17/-1713/1/8/
!!!OCY: Italia
**kern	**kern	**kern	**kern	**kern	**kern	**kern
*clefC	*clefG	*clefG	*clefG	*clefC	*clefG	*clefG
*k[b-]	*k[b-]	*k[b-]	*k[b-]	*k[b-]	*k[b-]	*k[b-]
*d:	*d:	*d:	*d:	*d:	*d:	*d:
*M4/4	*M4/4	*M4/4	*M4/4	*M4/4	*M4/4	*M4/4
=1	=1	=1	=1	=1	=1	=1
1r	4.d	1r	1r	4.d	1r	1r
.	8c#	.	.	8c#	.	.
.	8d	.	.	8d	.	.
.	8f	.	.	8f	.	.
.	8e	.	.	8e	.	.
.	8a	.	.	8a	.	.
=2	=2	=2	=2	=2	=2	=2
1r	4d	8r	1r	4d	8r	1r
.	.	4d	.	.	4d	.
.	4e	.	.	4e	.	.
.	.	8c#	.	.	8c#	.
.	8f	8d	.	8f	8d	.
.	4d	8f	.	4d	8f	.
.	.	8e	.	.	8e	.
.	8c#	8a	.	8c#	8a	.
=3	=3	=3	=3	=3	=3	=3
1r	8d	8f	8r	8d	8f	8r
.	8c	8e	4a	8c	8e	4a
.	8B	4d	.	8B	4d	.
.	8e	.	8g#	8e	.	8g#
.	4A	8c	8a	4A	8c	8a
.	.	4a	8cc	.	4a	8cc
.	4r	.	8b	4r	.	8b
.	.	[8g	8ee	.	[8g	8ee
=4	=4	=4	=4	=4	=4	=4
8r	8r	8g]	4a	8r	8g]	4a
4D	8d	8f	.	4D	8f	.
.	8e	8e	4g	.	8e	4g
8C#	8A	8ee	.	8C#	8ee	.
8D	8r	4a	8f	8D	4a	8f
8F	8a	.	4dd	8F	.	4dd
8E	8b-	4g	.	8E	4g	.
8A	8a	.	8cc#	8A	.	8cc#
=5	=5	=5	=5	=5	=5	=5
8D	4a	8f	8dd	8D	8f	8dd
4d	.	8ff	8aa	4d	8ff	8aa
.	8r	4ee	8gg	.	4ee	8gg
4c	8e	.	16aa	4c	.	16aa
.	.	.	16gg	.	.	16gg
.	8a	4dd	16ff#	.	4dd	16ff#
.	.	.	16dd	.	.	16dd
4B-	8d	.	16gg	4B-	.	16gg
.	.	.	16ff	.	.	16ff
.	8g	4cc	16ee	.	4cc	16ee
.	.	.	16cc	.	.	16cc
8A	8c	.	[8ff	8A	.	[8ff
=6	=6	=6	=6	=6	=6	=6
8G	8r	4b-	8ff]	8G	4b-	8ff]
8c	8g	.	4ee	8c	.	4ee
8F	8a	4a	.	8F	4a	.
16E	8d	.	4dd	16E	.	4dd
16D	.	.	.	16D	.	.
8E	8B	8g#	.	8E	8g#	.
8AA	16c	4a	8cc	8AA	4a	8cc
.	16d	.	.	.	.	.
8E	8e	.	4b	8E	.	4b
8EE	8e	8g#	.	8EE	8g#	.
=7	=7	=7	=7	=7	=7	=7
8AA	4e	4a	8a	8AA	4a	8a
8c	.	.	4aa	8c	.	4aa
8d	2.r	4.r	.	8d	4.r	.
8e	.	.	8gg#	8e	.	8gg#
8A	.	.	8aa	8A	.	8aa
8AA	.	4aa	8ccc	8AA	4aa	8ccc
8E	.	.	8bb	8E	.	8bb
8EE	.	8gg#	8eee	8EE	8gg#	8eee
=8	=8	=8	=8	=8	=8	=8
4AA	8r	8aa	8ccc	8r	8aa	8ccc
.	4a	8ccc	8ee	4A	8ccc	8ee
2.r	.	8bb	8dd	.	8bb	8dd
.	8g#	8eee	4b	8G#	8eee	4b
.	8a	8ccc	.	8A	8ccc	.
.	8cc	8cc	4a	8c	8cc	4a
.	8b	8dd	.	8B	8dd	.
.	8ee	16cc	8g#	8e	16cc	8g#
.	.	16b	.	.	16b	.
=9	=9	=9	=9	=9	=9	=9
8r	8a	8cc	8a	8A	8cc	8a
4D	8d	8ff	8aa	4D	8ff	8aa
.	8e	8ee	8gg	.	8ee	8gg
8C#	8A	4ee	16aa	8C#	4ee	16aa
.	.	.	16gg	.	.	16gg
8D	8r	.	8ff	8D	.	8ff
8F	8a	4dd	8a	8F	4dd	8a
8E	8b-	.	4g	8E	.	4g
8A	8a	8cc#	.	8A	8cc#	.
=10	=10	=10	=10	=10	=10	=10
8D	4a	4dd	8f	8D	4dd	8f
8d	.	.	4ff	8d	.	4ff
8c	8r	4.gg	.	8c	4.gg	.
8C	8cc	.	8ee	8C	.	8ee
8FF	4cc	.	4.aa	8FF	.	4.aa
8F	.	8ff	.	8F	8ff	.
8G	4r	[4bb-	.	8G	[4bb-	.
16G	.	.	8gg	16G	.	8gg
16F	.	.	.	16F	.	.
=11	=11	=11	=11	=11	=11	=11
8E	8r	8bb-]	4.ccc	8E	8bb-]	4.ccc
8F	8a	8aa	.	8F	8aa	.
8B-	8f	4ddd	.	8B-	4ddd	.
8BB-	4g	.	4bb-	8BB-	.	4bb-
8C	.	8ee	.	8C	8ee	.
8F	16a	8ff	8aa	8F	8ff	8aa
.	16b-	.	.	.	.	.
8c	8cc	8ee	8gg	8c	8ee	8gg
8F	8cc	8ff	8aa	8F	8ff	8aa
=12	=12	=12	=12	=12	=12	=12
4c	8cc	8ee	8gg	8c	8ee	8gg
.	8f	8a	8dd	8f	8a	8dd
2.r	8e	8g	8cc	8e	8g	8cc
.	16f	16a	16dd	16f	16a	16dd
.	16e	16g	16cc	16e	16g	16cc
.	8d	8f	8b-	8d	8f	8b-
.	8d	8f	8b-	8d	8f	8b-
.	8c	8e	8a	8c	8e	8a
.	16d	16f	16b-	16d	16f	16b-
.	16c	16e	16cc	16c	16e	16cc
=13	=13	=13	=13	=13	=13	=13
4.r	8B-	8d	8dd	8B-	8d	8dd
.	8B-	8e	8dd	8B-	8e	8dd
.	8A	8f	8cc	8A	8f	8cc
8AA	8f	8f	16b-	8AA	8f	16b-
.	.	.	16a	.	.	16a
8BB-	8f	4f	16dd	8BB-	4f	16dd
.	.	.	16cc	.	.	16cc
8GG	8B-	.	16b-	8GG	.	16b-
.	.	.	16a	.	.	16a
8C	8c	8.f	4g	8C	8.f	4g
8CC	8c	.	.	8CC	.	.
.	.	16e	.	.	16e	.
=14	=14	=14	=14	=14	=14	=14
8FF	4A	4f	8f	8FF	4f	8f
8F	.	.	4dd	8F	.	4dd
8G	2.r	4.r	.	8G	4.r	.
8A	.	.	8cc#	8A	.	8cc#
4D	.	.	8dd	4D	.	8dd
.	.	4dd	8ff	.	4dd	8ff
4AA	.	.	8ee	4AA	.	8ee
.	.	8cc#	8aa	.	8cc#	8aa
=15	=15	=15	=15	=15	=15	=15
1r	8r	8dd	8ff	8r	8dd	8ff
.	8a	4ff	8aa	8A	4ff	8aa
.	8b-	.	8gg	8B-	.	8gg
.	8cc	8ee	8ccc	8c	8ee	8ccc
.	4f	8ff	8aa	4F	8ff	8aa
.	.	8aa	4ff	.	8aa	4ff
.	4c	8gg	.	4C	8gg	.
.	.	8ccc	8ee	.	8ccc	8ee
=16	=16	=16	=16	=16	=16	=16
8r	8r	8aa	8ff	8r	8aa	8ff
8F	8a	4a	8cc	8F	4a	8cc
8BB-	8b-	.	4dd	8BB-	.	4dd
8B-	8B-	4g	.	8B-	4g	.
8A	8c	.	4cc	8A	.	4cc
8AA	8f	4f	.	8AA	4f	.
8GG	8d	.	4b-	8GG	.	4b-
8C	8c	8e	.	8C	8e	.
=17	=17	=17	=17	=17	=17	=17
4FF	4c	4f	4a	4FF	8f	8a
.	.	.	.	.	8ff	8aa
4.r	4.r	4.r	4.r	4.r	8ee	8gg
.	.	.	.	.	16ff	16aa
.	.	.	.	.	16ee	16gg
.	.	.	.	.	8dd	8ff
8D	8a	8dd	8ff	8D	8dd	8ff
8A	8a	8cc#	8ee	8A	8cc#	8ee
8D	8a	8dd	8ff	8D	8dd	8ff
=18	=18	=18	=18	=18	=18	=18
8A	8a	8cc#	8ee	8A	8cc#	8ee
2r	2r	2r	2r	2r	8aa	8ccc
.	.	.	.	.	8gg	8bb-
.	.	.	.	.	16aa	16ccc
.	.	.	.	.	16gg	16bb-
.	.	.	.	.	8ff	8aa
8F	8cc	8ff	8aa	8F	8ff	8aa
8c	8cc	8ee	8gg	8c	8ee	8gg
8F	8cc	8ff	8aa	8F	8ff	8aa
=19	=19	=19	=19	=19	=19	=19
8c	8cc	8ee	8gg	8c	8ee	8gg
2r	2r	2r	2r	2r	8bb-	8ddd
.	.	.	.	.	8aa	8ccc
.	.	.	.	.	16bb-	16ddd
.	.	.	.	.	16aa	16ccc
.	.	.	.	.	8gg	8bb-
8G	8dd	8gg	8bb-	8G	8gg	8bb-
8d	8dd	8ff#	8aa	8d	8ff#	8aa
8G	8dd	8gg	8bb-	8G	8gg	8bb-
=20	=20	=20	=20	=20	=20	=20
8d	8dd	8ff#	8aa	8d	8ff#	8aa
8G	8d	8gg	8bb-	8G	8gg	8bb-
8D	4d	8.gg	4aa	8D	8.gg	4aa
8DD	.	.	.	8DD	.	.
.	.	16ff#	.	.	16ff#	.
8GG	8d	4gg	8gg	8GG	4gg	8gg
8G	8g	.	16bb-	8G	.	16bb-
.	.	.	16gg	.	.	16gg
8F#	4dd	8r	8aa	8F#	8r	8aa
8D	.	16ddd	8dd	8D	16ddd	8dd
.	.	16aa	.	.	16aa	.
=21	=21	=21	=21	=21	=21	=21
8GG	8r	4bb-	8r	8GG	4bb-	8r
8G	8g	.	16bb-	8G	.	16bb-
.	.	.	16gg	.	.	16gg
8F#	4dd	8r	8aa	8F#	8r	8aa
8D	.	16ddd	8dd	8D	16ddd	8dd
.	.	16aa	.	.	16aa	.
8GG	8r	4bb-	8r	8GG	4bb-	8r
8G	8d	.	4bb-	8G	.	4bb-
8C#	8e	4ee	.	8C#	4ee	.
8AA	8A	.	16aa	8AA	.	16aa
.	.	.	16gg	.	.	16gg
=22	=22	=22	=22	=22	=22	=22
8D	8r	8a	8ff	8D	8a	8ff
8d	8a	4ff	4aa	8d	4ff	4aa
8F	8dd	.	.	8F	.	.
8G	8d	16ee	16gg	8G	16ee	16gg
.	.	16dd	16ff	.	16dd	16ff
8A	4a	4cc#	8ee	8A	4cc#	8ee
8AA	.	.	8aa	8AA	.	8aa
8r	8r	8r	8bb-	8r	8r	8bb-
8A	8a	8cc#	8aa	8A	8cc#	8aa
=23	=23	=23	=23	=23	=23	=23
8B-	8dd	8dd	8r	8B-	8dd	8r
8A	8a	8cc	8ff	8A	8cc	8ff
8r	8r	8r	8gg	8B-	8r	8gg
8A	8f	8cc	8ff	8A	8cc	8ff
8G	8b-	8b-	8r	8G	8b-	8r
8F	8f	8a	8dd	8F	8a	8dd
8r	8r	8r	8ee-	8G	8r	8ee-
8F	8d	8a	8dd	8F	8a	8dd
=24	=24	=24	=24	=24	=24	=24
8E	8e	8g	8cc#	8E	8g	8cc#
8D	16f	8f	4dd	8D	8f	4dd
.	16g	.	.	.	.	.
8A	8.a	4e	.	8A	4e	.
8AA	.	.	8cc#	8AA	.	8cc#
.	16a	.	.	.	.	.
8D	8a	8d	[2dd	8D	8d	[2dd
4G	4r	8b-	.	4G	8b-	.
.	.	8a	.	.	8a	.
8F#	8a	8dd	.	8F#	8dd	.
=25	=25	=25	=25	=25	=25	=25
8G	8b-	8r	2dd]	8G	8r	2dd]
8B-	8g	4g	.	8B-	4g	.
8A	8r	.	.	8A	.	.
8d	8a	8f#	.	8d	8f#	.
8r	8b-	8g	[2dd	8r	8g	[2dd
4G	8g	8b-	.	4G	8b-	.
.	8r	8a	.	.	8a	.
8F#	8a	8dd	.	8F#	8dd	.
=26	=26	=26	=26	=26	=26	=26
8G	4b-	8b-	4.dd]	8G	8b-	4.dd]
8A	.	8d	.	8A	8d	.
8B-	8r	2g	.	8B-	2g	.
8G	8g	.	8b-	8G	.	8b-
4A	4e	.	4c#	4A	.	4c#
4G#	4b	8f	[4d	4G#	8f	[4d
.	.	8e	.	.	8e	.
=27	=27	=27	=27	=27	=27	=27
4A	4.a	4f	4d]	4A	4f	4d]
4AA	.	4e	4c#	4AA	4e	4c#
.	8A	.	.	.	.	.
2D	2A	2d	2d	2D	2d	2d
=28	=28	=28	=28	=28	=28	=28
4C	4A	4e	4a	4C	4e	4a
4r	4r	4r	4r	4r	4r	4r
4BB-	4d	4d	4g	4BB-	4d	4g
4r	4r	4r	4r	4r	4r	4r
=29	=29	=29	=29	=29	=29	=29
1AA	1e	1c#	1a	1AA	1c#	1a
==	==	==	==	==	==	==
*-	*-	*-	*-	*-	*-	*-
!!!RWG: This file only contains pitch and duration data.
!!!RWG: Transposing instruments are not transposed.
!!!RWG: Durations of rests and tied notes may be interpreted.
!!!RWG: Key is interpreted using the Humdrum key tool.
!!!SCA: 
!!!YOR: Chrysander Edition
!!!AGN: concerto grosso
!!!AFT: stage1
!!!ENC: F. Bennion
!!!END: 1997/04/15
!!!AST: baroque
!!!YEC: Copyright 1994, Center for Computer Assisted Research in the Humanities
!!!YEM: Rights to all derivative electronic formats reserved.
!!!YEM: Refer to licensing agreement for further details.
!!!YEN: United States of America
!!!EED: W.B. Hewlett
!!!KEY: 544551330
!!!EMD: Converted from MuseData to Humdrum Aug 9, 1999, by Bret Aarden using muse2kern.
!!!VTS: 1521328078
